X: 15606
T: Goat Island
R: polka
M: 2/4
K: Gmajor
|:eg ge|dB BA|G/F/G/A/ Bd|BA G2|
eg ge|dB BA|G/F/G/A/ Bd|BA G2:|
|:g2 fe|gg fe|dB AG/A/|BA G2|
g2 fe|gg fe|dd ee|fa g2:|

